lib/typescript/assets/images/icons/whatsapp_avatar.svg

<?xml version="1.0" encoding="UTF-8"?>
<svg width="40px" height="40px" viewBox="0 0 144 144" version="1.1" xmlns="http://www.w3.org/2000/svg" xmlns:xlink="http://www.w3.org/1999/xlink">
    <title>Group 14</title>
    <g id="Page-1" stroke="none" stroke-width="1" fill="none" fill-rule="evenodd">
        <g id="Group-14">
            <circle id="Oval-Copy-6" fill="#F1FAFF" cx="72" cy="72" r="72"></circle>
            <path d="M106.021991,39.0125617 C97.3227271,30.3132981 85.7752275,25.5220793 73.4549506,25.5 C48.0636991,25.5 27.4195076,46.1662708 27.3974283,71.535443 C27.3974283,79.6606435 29.5170458,87.5650505 33.5354874,94.5642042 L27,118.431981 L51.4197602,112.028969 C58.1539617,115.694141 65.7271784,117.637124 73.4328713,117.637124 L73.4549506,117.637124 C73.4549506,117.637124 73.4549506,117.637124 73.4549506,117.637124 C98.8241228,117.637124 119.490394,96.9708532 119.512473,71.5796017 C119.512473,59.2814042 114.721254,47.7118253 106.021991,39.0125617 Z M73.4549506,109.865193 L73.4549506,109.865193 C66.5661937,109.865193 59.8319922,108.010528 53.9588853,104.521991 L52.5678863,103.682975 L38.0838333,107.480623 L41.9477194,93.34984 L41.0424661,91.8926029 C37.2006593,85.7987026 35.1914385,78.7553902 35.1914385,71.535443 C35.1914385,50.4275852 52.3691722,33.2719309 73.47703,33.2719309 C83.6997687,33.2719309 93.3042855,37.2682931 100.546312,44.4882403 C107.766259,51.7302668 111.740542,61.3347837 111.740542,71.5575224 C111.718463,92.6874595 94.5407291,109.865193 73.4549506,109.865193 Z M94.4524117,81.1841186 C93.3042855,80.6100555 87.6519722,77.8280575 86.5921634,77.4306292 C85.5323546,77.0552803 84.7595774,76.8565662 84.0088795,78.0046923 C83.2361023,79.1528185 81.0281674,81.7581817 80.3657869,82.5088795 C79.7034065,83.2816568 79.0189466,83.3699742 77.8708205,82.7959111 C76.7226943,82.221848 73.0133637,81.0074838 68.6195732,77.0773596 C65.1972741,74.0304095 62.9010217,70.2548408 62.2165619,69.1067146 C61.5541814,67.9585884 62.1503239,67.3403667 62.7243869,66.7663036 C63.232212,66.2584786 63.8725131,65.4194633 64.4465762,64.7570828 C65.0206393,64.0947023 65.2193534,63.6089567 65.5947023,62.8361794 C65.9700513,62.0634022 65.7934165,61.4010217 65.5063849,60.8269587 C65.2193534,60.2528956 62.9231011,54.5785028 61.9516097,52.2822505 C61.0242771,50.0301569 60.074865,50.3392678 59.3683259,50.3171885 C58.7059454,50.2730298 57.9331682,50.2730298 57.160391,50.2730298 C56.3876137,50.2730298 55.1511702,50.5600613 54.0913614,51.7081875 C53.0315527,52.8563136 50.0729199,55.6383116 50.0729199,61.3127043 C50.0729199,66.9870971 54.2017582,72.4406963 54.7758212,73.2134735 C55.3498843,73.9862508 62.8789424,85.5999884 74.426442,90.5899213 C77.1642813,91.7822062 79.3059782,92.4887454 80.9840087,93.0186497 C83.7439274,93.9018237 86.2388938,93.7693476 88.2260352,93.4823161 C90.4339702,93.1511258 95.0264748,90.7003181 95.9979661,88.0066375 C96.9473782,85.3129569 96.9473782,83.0167046 96.6603466,82.5309589 C96.3512357,82.0672926 95.6005379,81.780261 94.4524117,81.1841186 Z" id="Shape-Copy" fill="#0BD561"></path>
        </g>
    </g>
</svg>

<svg width="40" height="40" viewBox="0 0 144 144" xmlns="http://www.w3.org/2000/svg"><g fill="none" fill-rule="evenodd"><circle fill="#F1FAFF" cx="72" cy="72" r="72"/><path d="M106.022 39.013c-8.7-8.7-20.247-13.49-32.567-13.513-25.391 0-46.035 20.666-46.058 46.035 0 8.126 2.12 16.03 6.138 23.03L27 118.431l24.42-6.403a46.077 46.077 0 0 0 22.013 5.608h.022c25.37 0 46.035-20.666 46.057-46.057 0-12.299-4.79-23.868-13.49-32.567zm-32.567 70.852a38.176 38.176 0 0 1-19.496-5.343l-1.391-.839-14.484 3.798 3.864-14.131-.906-1.457c-3.841-6.094-5.85-13.138-5.85-20.358 0-21.107 17.177-38.263 38.285-38.263 10.223 0 19.827 3.996 27.07 11.216 7.22 7.242 11.194 16.847 11.194 27.07-.023 21.13-17.2 38.307-38.286 38.307zm20.997-28.68c-1.148-.575-6.8-3.357-7.86-3.754-1.06-.376-1.832-.574-2.583.574-.773 1.148-2.98 3.753-3.643 4.504-.663.773-1.347.861-2.495.287-1.148-.574-4.858-1.789-9.251-5.719-3.423-3.047-5.719-6.822-6.403-7.97-.663-1.148-.067-1.767.507-2.34.508-.509 1.149-1.348 1.723-2.01.574-.662.772-1.148 1.148-1.92.375-.774.198-1.436-.089-2.01-.287-.574-2.583-6.248-3.554-8.545-.928-2.252-1.877-1.943-2.584-1.965-.662-.044-1.435-.044-2.208-.044-.772 0-2.009.287-3.069 1.435-1.06 1.148-4.018 3.93-4.018 9.605 0 5.674 4.129 11.128 4.703 11.9.574.773 8.103 12.387 19.65 17.377 2.738 1.192 4.88 1.899 6.558 2.429 2.76.883 5.255.75 7.242.463 2.208-.33 6.8-2.782 7.772-5.475.95-2.694.95-4.99.662-5.476-.309-.464-1.06-.75-2.208-1.347z" fill="#0BD561"/></g></svg>
